public/images/vk.svg

<svg width="34" height="35" viewBox="0 0 34 35" fill="none" xmlns="http://www.w3.org/2000/svg">
<circle cx="17" cy="17.5" r="17" fill="white"/>
<path d="M25.335 21.8481C25.335 21.7775 25.2644 21.7775 25.2644 21.707C24.9821 21.1424 24.347 20.4367 23.5002 19.6605C23.0768 19.3076 22.8651 19.0253 22.7239 18.8842C22.5122 18.6019 22.5122 18.3902 22.5828 18.1079C22.6534 17.8962 22.9356 17.5434 23.4296 16.9082C23.7119 16.5554 23.853 16.3437 24.0647 16.132C25.1233 14.7206 25.6173 13.8032 25.4761 13.3798L25.4056 13.3092C25.335 13.2386 25.2644 13.1681 25.1233 13.1681C24.9821 13.0975 24.7704 13.0975 24.5587 13.1681H21.8771C21.8065 13.1681 21.8065 13.1681 21.6654 13.1681C21.5948 13.1681 21.5242 13.1681 21.5242 13.1681H21.4537H21.3831L21.3125 13.2386C21.242 13.3092 21.242 13.3092 21.242 13.3798C20.9597 14.156 20.6068 14.7912 20.254 15.4969C20.0423 15.8497 19.8306 16.2026 19.6189 16.4848C19.4072 16.7671 19.266 16.9788 19.1249 17.12C18.9837 17.2611 18.8426 17.3317 18.772 17.4728C18.7014 17.5434 18.5603 17.614 18.5603 17.5434C18.4897 17.5434 18.4192 17.5434 18.4192 17.4728C18.3486 17.4022 18.278 17.3317 18.2075 17.2611C18.1369 17.1905 18.1369 17.0494 18.0663 16.9082C18.0663 16.7671 18.0663 16.626 18.0663 16.5554C18.0663 16.4848 18.0663 16.2731 18.0663 16.132C18.0663 15.9203 18.0663 15.7791 18.0663 15.7086C18.0663 15.4969 18.0663 15.2146 18.0663 14.9323C18.0663 14.65 18.0663 14.4383 18.0663 14.2972C18.0663 14.156 18.0663 13.9443 18.0663 13.8032C18.0663 13.5915 18.0663 13.4503 18.0663 13.3798C18.0663 13.3092 17.9958 13.1681 17.9958 13.0975C17.9252 13.0269 17.8546 12.9564 17.784 12.8858C17.7135 12.8152 17.5723 12.8152 17.5018 12.7447C17.1489 12.6741 16.7255 12.6035 16.2315 12.6035C15.1024 12.6035 14.3262 12.6741 14.0439 12.8152C13.9027 12.8858 13.7616 12.9564 13.691 13.0975C13.5499 13.2386 13.5499 13.3092 13.6205 13.3092C13.9733 13.3798 14.2556 13.5209 14.3967 13.7326L14.4673 13.8738C14.5379 13.9443 14.5379 14.0855 14.6084 14.2972C14.679 14.5089 14.679 14.7206 14.679 15.0029C14.679 15.4263 14.679 15.8497 14.679 16.132C14.679 16.4848 14.6084 16.6965 14.6084 16.9082C14.6084 17.12 14.5379 17.2611 14.4673 17.3317C14.3967 17.4728 14.3967 17.5434 14.3261 17.5434C14.3261 17.5434 14.3261 17.6139 14.2556 17.6139C14.185 17.6139 14.1144 17.6845 13.9733 17.6845C13.9027 17.6845 13.7616 17.614 13.691 17.5434C13.5499 17.4728 13.4087 17.3317 13.3382 17.1905C13.197 17.0494 13.0559 16.8377 12.9148 16.5554C12.7736 16.2731 12.5619 15.9908 12.4208 15.5674L12.2796 15.2852C12.2091 15.144 12.0679 14.8617 11.9268 14.5089C11.7857 14.156 11.6445 13.8738 11.5034 13.5209C11.4328 13.3798 11.3622 13.3092 11.2917 13.2386H11.2211C11.2211 13.2386 11.1505 13.1681 11.0799 13.1681C11.0094 13.1681 10.9388 13.0975 10.8682 13.0975H8.32774C8.04546 13.0975 7.90433 13.1681 7.83376 13.2386L7.76318 13.3092C7.76318 13.3092 7.76318 13.3798 7.76318 13.4503C7.76318 13.5209 7.76319 13.5915 7.83376 13.7326C8.1866 14.5795 8.61002 15.4263 9.03344 16.2731C9.45685 17.0494 9.88027 17.7551 10.1626 18.2491C10.5154 18.7431 10.7977 19.237 11.1505 19.6605C11.5034 20.0839 11.7151 20.3662 11.7856 20.5073C11.9268 20.6484 11.9973 20.719 12.0679 20.7896L12.2796 21.0013C12.4208 21.1424 12.6325 21.3541 12.9148 21.5658C13.197 21.7775 13.5499 21.9893 13.9027 22.201C14.2556 22.4127 14.679 22.5538 15.1024 22.695C15.5964 22.8361 16.0198 22.9067 16.4432 22.8361H17.5018C17.7135 22.8361 17.8546 22.7655 17.9958 22.6244L18.0663 22.5538C18.0663 22.4832 18.1369 22.4832 18.1369 22.4127C18.1369 22.3421 18.1369 22.2715 18.1369 22.1304C18.1369 21.8481 18.1369 21.6364 18.2075 21.4247C18.278 21.213 18.278 21.0719 18.3486 20.9307C18.4192 20.7896 18.4897 20.719 18.5603 20.6484C18.6309 20.5779 18.7015 20.5073 18.7015 20.5073H18.772C18.9132 20.4367 19.1249 20.5073 19.266 20.6484C19.4777 20.7896 19.6894 21.0013 19.8306 21.213C19.9717 21.4247 20.1834 21.6364 20.4657 21.9187C20.748 22.201 20.9597 22.4127 21.1008 22.4832L21.3125 22.6244C21.4537 22.695 21.5948 22.7655 21.8065 22.8361C22.0182 22.9067 22.1594 22.9067 22.3005 22.9067L24.6999 22.8361C24.9116 22.8361 25.1233 22.7655 25.2644 22.695C25.4056 22.6244 25.4761 22.5538 25.4761 22.4127C25.4761 22.3421 25.4761 22.201 25.4761 22.1304C25.335 21.9893 25.335 21.9187 25.335 21.8481Z" fill="black"/>
</svg>

<svg width="34" height="35" fill="none" xmlns="http://www.w3.org/2000/svg"><circle cx="17" cy="17.5" r="17" fill="#fff"/><path d="M25.335 21.848c0-.07-.07-.07-.07-.141-.283-.565-.918-1.27-1.765-2.047-.423-.352-.635-.635-.776-.776-.212-.282-.212-.494-.141-.776.07-.212.353-.565.847-1.2.282-.353.423-.564.635-.776 1.058-1.411 1.552-2.329 1.411-2.752l-.07-.07c-.071-.071-.142-.142-.283-.142-.14-.07-.353-.07-.564 0h-3.175l-.072.07c-.07.071-.07.071-.07.142-.282.776-.635 1.411-.988 2.117-.212.353-.423.706-.635.988-.212.282-.353.494-.494.635-.141.141-.282.212-.353.353-.07.07-.212.141-.212.07-.07 0-.14 0-.14-.07l-.213-.212c-.07-.07-.07-.212-.14-.353V13.38c0-.07-.071-.212-.071-.283l-.212-.211c-.07-.07-.212-.07-.282-.141a6.328 6.328 0 00-1.27-.141c-1.13 0-1.906.07-2.188.211-.141.07-.282.141-.353.283-.141.14-.141.211-.07.211.352.07.635.212.776.424l.07.14c.07.071.07.213.141.424.071.212.071.424.071.706v1.129c0 .353-.07.564-.07.776 0 .212-.071.353-.142.424-.07.14-.07.211-.14.211 0 0 0 .07-.071.07s-.142.072-.283.072a.535.535 0 01-.282-.142.85.85 0 01-.353-.352c-.141-.142-.282-.353-.423-.636-.141-.282-.353-.564-.494-.988l-.141-.282c-.07-.141-.212-.423-.353-.776-.141-.353-.282-.635-.424-.988a.949.949 0 00-.211-.282h-.07s-.072-.07-.142-.07c-.07 0-.141-.072-.212-.072h-2.54c-.283 0-.424.071-.494.142l-.07.07v.141c0 .07 0 .142.07.283.353.846.776 1.693 1.2 2.54.423.776.846 1.482 1.129 1.976.352.494.635.988.987 1.412.353.423.565.705.636.846l.282.283.212.211c.14.141.353.353.635.565.282.212.635.423.988.635.353.212.776.353 1.2.494.493.141.917.212 1.34.141h1.059a.64.64 0 00.494-.212l.07-.07c0-.07.07-.07.07-.141v-.283c0-.282 0-.494.072-.705.07-.212.07-.353.14-.494a.975.975 0 01.212-.283l.142-.14h.07c.141-.071.353 0 .494.14.212.142.423.353.565.565.14.212.352.423.635.706.282.282.494.494.635.564l.212.141c.14.071.282.142.494.212.211.07.352.07.494.07l2.399-.07c.212 0 .423-.07.564-.141.142-.07.212-.141.212-.282v-.283c-.141-.14-.141-.211-.141-.282z" fill="#000"/></svg>
